X: 491
T: Collonel Crafurd's Reel
T: Collouel Crafurd's Reel
N: The ToC has "Collonel"; the music page has "Collouel", an obvious typo.
R: reel, strathspey
B: Robert Bremner "A Collection of Scots Reels or Country Dances" 1757 p.49 #1
S: http://imslp.org/wiki/A_Collection_of_Scots_Reels_or_Country_Dances_(Bremner,_Robert)
Z: 2013 John Chambers <jc:trillian.mit.edu>
M: C|
L: 1/8
K: F
% - - - - - - - - - - - - - - - - - - - - - - - - -
V: 1
A |\
F>CA,C  F/F/F A>F | G/G/G B>A GDDE |\
F>CA,C  F/F/F c>f | dfcf TA>GF :|\
e |\
f>gag fefc | d/d/d b>a gdde |
f>gag fefc | dfcf TA>GFe |\
f>gag fefc | d/d/d ba gdde |\
fca(g f)(cd)(A | B)GcB TA>GF |]
% - - - - - - - - - - - - - - - - - - - - - - - - -
V: 2 clef=bass middle=d
z |\
f2f2 f2f2 | g2g2 d2d2 |\
f2f2 f2f2 | B2c2 F2F :|
z |\
f2f2 f2f2 | g2g2 g2g2 |
f2f2 f2f2 | B2c2 F2F2 |\
f2f2 f2f2 | g2g2 g2g2 |\
f2g2 a2b2 | c'2c2 f2F |]
% - - - - - - - - - - - - - - - - - - - - - - - - -

%%sep 1 1 500
%%sep 1 1 500
